X:5
T:Batchelder's Reel
S:Bernie Waugh
R:Reel
M:4/4
L:1/8
K:F
|:c|\
"F"f2af "(C)"efge|"F"f2c2c2=Bc|"Bb"dcBA "Gm"BAGF|"C"EFGA Bcde|
"F"f2af efge|f2c2c2=Bc|"Bb"dcBA "Gm"BAGF|1"C"EFGE"F"F3:|2"C"EFGE"F"F4||
|:\
"F"A2cA cAcA|"Bb"B2 dB dBdB|"F"A2cA cAcA|"C"BAGF EFGB|
"F"A2cA cAcA|"Bb"B2dB dBdB|"F"Acfa "C"bgeg|1"F"f2a2f4:|2"F"f2a2f3|]

